chrome/WhiteSur/icons/folder-locked-symbolic.svg

<?xml version="1.0" encoding="UTF-8"?>
<svg xmlns="http://www.w3.org/2000/svg" xmlns:xlink="http://www.w3.org/1999/xlink" width="16px" height="16px" viewBox="0 0 16 16" version="1.1">
<g id="surface1">
<path style=" stroke:none;fill-rule:nonzero;fill:rgb(0%,0%,0%);fill-opacity:1;" d="M 8 11.332031 C 8.738281 11.332031 9.332031 10.738281 9.332031 10 C 9.332031 9.261719 8.734375 8.667969 8 8.667969 C 7.261719 8.667969 6.667969 9.261719 6.667969 10 C 6.667969 10.738281 7.261719 11.332031 8 11.332031 M 12 5.332031 C 12.738281 5.332031 13.332031 5.929688 13.332031 6.667969 L 13.332031 13.332031 C 13.332031 14.070312 12.738281 14.667969 12 14.667969 L 4 14.667969 C 3.261719 14.667969 2.667969 14.070312 2.667969 13.332031 L 2.667969 6.667969 C 2.667969 5.925781 3.265625 5.332031 4 5.332031 L 4.667969 5.332031 L 4.667969 4 C 4.667969 2.160156 6.160156 0.667969 8 0.667969 C 9.839844 0.667969 11.332031 2.160156 11.332031 4 L 11.332031 5.332031 L 12 5.332031 M 8 2 C 6.894531 2 6 2.894531 6 4 L 6 5.332031 L 10 5.332031 L 10 4 C 10 2.894531 9.105469 2 8 2 Z M 8 2 "/>
</g>
</svg>

<?xml version="1.0"?>
<svg width="16" height="16" xmlns="http://www.w3.org/2000/svg" xmlns:svg="http://www.w3.org/2000/svg" version="1.1">
 <g class="layer">
  <title>Layer 1</title>
  <g id="surface1">
   <path d="m8,11.33c0.74,0 1.33,-0.59 1.33,-1.33c0,-0.74 -0.6,-1.33 -1.33,-1.33c-0.74,0 -1.33,0.59 -1.33,1.33c0,0.74 0.59,1.33 1.33,1.33m4,-6c0.74,0 1.33,0.6 1.33,1.34l0,6.66c0,0.74 -0.59,1.34 -1.33,1.34l-8,0c-0.74,0 -1.33,-0.6 -1.33,-1.34l0,-6.66c0,-0.74 0.6,-1.34 1.33,-1.34l0.67,0l0,-1.33c0,-1.84 1.49,-3.33 3.33,-3.33c1.84,0 3.33,1.49 3.33,3.33l0,1.33l0.67,0m-4,-3.33c-1.11,0 -2,0.89 -2,2l0,1.33l4,0l0,-1.33c0,-1.11 -0.89,-2 -2,-2zm0,0" fill="#363636" fill-rule="nonzero" id="svg_1"/>
  </g>
 </g>
</svg>
